**kern	**kern	**dynam
*part1	*part1	*part1
*staff2	*staff1	*
*I"Piano	*	*
*clefF4	*clefG2	*
*k[f#c#g#d#]	*k[f#c#g#d#]	*
=1	=1	=1
8BBBL	8r	.
8BB	8g#XL	.
8EJ	8G#X	.
8r	8e	.
4r	8G#	.
.	8BJ	.
=	=	=
(8BBL	8r	.
8E	(8gg#L	.
8G#J)	8a	.
8r	8ee	.
4r	8g#	.
.	8bJ)	.
=	=	=
(8BB#XL	8r	.
8F#	(8aaL	.
8B#XJ)	8a	.
8r	8ff#	.
4r	8a	.
.	8dd#J)	.
=	=	=
*	*^	*
(2.DDn 2.Dn	4r	8r	p
!	!LO:TX:b:i:t=cresc.	!	!
.	.	8BnL	>
.	(4g#	8f#	.
.	.	8B	.
.	4a#X	8f#	.
.	.	8BJ	.
=	=	=	=
4CC#) 4C#	4b	8e#XL	]
.	.	8B	.
4r	4an	8e#	.
.	.	8B	.
4r	4g#)	8e#	.
.	.	8BJ	.
=	=	=	=
(2.GGn 2.Gn	4r	8r	mp
.	.	8enL	>
.	(4cc#	8b	.
.	.	8e	.
.	4dd#X	8b	.
.	.	8eJ	.
=	=	=	=
4FF#) 4F#	4ee	8a#XL	] mp
.	.	8e	.
4r	4dd#	8a#	.
.	.	8e	.
4r	4cc#)	8a#	.
.	.	8eJ	.
*	*v	*v	*
=	=	=
*-	*-	*-
!!!system-decoration: {(s1,s2)}
